P3
# 8x8 checkerboard texture
8 8
255
255 255 255  255 255 255  40 40 40  40 40 40  255 255 255  255 255 255  40 40 40  40 40 40
255 255 255  255 255 255  40 40 40  40 40 40  255 255 255  255 255 255  40 40 40  40 40 40
40 40 40  40 40 40  255 255 255  255 255 255  40 40 40  40 40 40  255 255 255  255 255 255
40 40 40  40 40 40  255 255 255  255 255 255  40 40 40  40 40 40  255 255 255  255 255 255
255 255 255  255 255 255  40 40 40  40 40 40  255 255 255  255 255 255  40 40 40  40 40 40
255 255 255  255 255 255  40 40 40  40 40 40  255 255 255  255 255 255  40 40 40  40 40 40
40 40 40  40 40 40  255 255 255  255 255 255  40 40 40  40 40 40  255 255 255  255 255 255
40 40 40  40 40 40  255 255 255  255 255 255  40 40 40  40 40 40  255 255 255  255 255 255
